icons/svg/24x24/arrow right/outline.svg

<svg xmlns="http://www.w3.org/2000/svg" width="24" height="24" viewBox="0 0 24 24">
  <path fill-rule="evenodd" d="M21.9229,12.3818 C22.0249,12.1378 22.0249,11.8618 21.9229,11.6178 C21.8719,11.4948 21.7989,11.3848 21.7059,11.2928 L15.7069,5.2928 C15.3169,4.9028 14.6839,4.9028 14.2929,5.2928 C13.9019,5.6838 13.9019,6.3168 14.2929,6.7068 L18.5859,10.9998 L2.9999,10.9998 C2.4469,10.9998 1.9999,11.4478 1.9999,11.9998 C1.9999,12.5518 2.4469,12.9998 2.9999,12.9998 L18.5859,12.9998 L14.2929,17.2928 C13.9019,17.6838 13.9019,18.3168 14.2929,18.7068 C14.4879,18.9028 14.7439,18.9998 14.9999,18.9998 C15.2559,18.9998 15.5119,18.9028 15.7069,18.7068 L21.7059,12.7078 C21.7989,12.6148 21.8719,12.5048 21.9229,12.3818"/>
</svg>

<svg width="24" height="24" fill="none" xmlns="http://www.w3.org/2000/svg">
  <path fill-rule="evenodd" clip-rule="evenodd" d="M21.707 11.293l-6-6a.997.997 0 00-1.414 0A1.006 1.006 0 0014 6a.989.989 0 00.293.707L18.586 11H3a1 1 0 100 2h15.586l-4.293 4.293a.997.997 0 000 1.414c.194.194.452.292.707.293a.989.989 0 00.707-.293l6-6a.997.997 0 000-1.414z" fill="#000"/>
</svg>
